!!!COM: Scriabin, Alexander
!!!OTL@@FR: Fragilité
!!!OTL@@EN: Fragilité
!!!OPR@@FR: 4 Morceaux
!!!OPR@@EN: 4 Pieces
!!!OPS: 51
!!!ONM: 1
!!!ODT: 1906
!!!AGN: Miniature
**kern	**kern	**dynam
*staff2	*staff1	*staff1/2
*Ipiano	*Ipiano	*
*clefF4	*clefG2	*
*k[b-e-a-]	*k[b-e-a-]	*
*E-:	*E-:	*
*M2/4	*M2/4	*
=1	=1	=1
*^	*	*
[4a-	12a-L	8r	.
.	12e-	.	.
.	.	8cc 8ee-	.
.	12cJ	.	.
6a-]	6F-X	8ccL 8ee- 8aa-	.
.	.	8a-J 8ee-	.
12c	12c	.	.
=2	=2	=2	=2
[4d	12dL	8a-L 8dd 8gg	.
.	12A-	.	.
.	.	8dd 8gg 8ccc	.
.	12BB-J	.	.
6d]	12A-L	8dd 8gg 8bbn	.
.	12d	.	.
.	.	8bnJ 8dd	.
12a-	12a-J	.	.
=3	=3	=3	=3
[4a-	12a-L	8ccL 8ff	.
.	12e-	.	.
.	.	8cc 8ee-	.
.	12cJ	.	.
6a-]	6F-X	8cc 8ee- 8aa-	.
.	.	8a-J 8ee-	.
12c	12c	.	.
=4	=4	=4	=4
[4d	12dL	8a-L 8dd 8gg	.
.	12A-	.	.
.	.	8dd 8gg 8ccc	.
.	12BB-J	.	.
6d]	12A-L	8dd 8gg 8bb-	.
.	12d	.	.
.	.	8ggJ 8bb- 8ddd	.
12b-	12b-J	.	.
=5	=5	=5	=5
6d	12dL	8aa-L 8fff	.
.	12A-	.	.
.	.	8gg 8ccc 8eee-	.
[12e-	12e-J	.	.
6e-]	6C	8ee- 8gg 8ccc	.
.	.	8ccJ 8ee- 8gg	.
12e-	12e-	.	.
=6	=6	=6	=6
2g	12gL	8r	.
.	12An	.	.
.	.	8e- 8an 8dd	.
.	12E-J	.	.
.	12FFL	8ccL 8ee- 8gg	.
.	12E-	.	.
.	.	8e-J 8bn	.
.	12AJ	.	.
=7	=7	=7	=7
[4g	12gL	8anL 8dd	.
.	12e-	.	.
.	.	8a 8dd-X	.
.	12AnJ	.	.
6g]	12FL	8a 8dd- 8gg	.
.	12A	.	.
.	.	8aJ 8cc	.
12g	12e-J	.	.
=8	=8	=8	=8
4g	12dnL	8a-XL 8cc	.
.	12A-X	.	.
.	.	8a- 8b-	.
.	12BB-J	.	.
6en	12A-L	8a- 8ddn 8gg	.
.	12d	.	.
.	.	8a-J 8dd 8ff	.
12f	12fJ	.	.
=9	=9	=9	=9
[4a-	12a-L	8r	.
.	12e-X	.	.
.	.	8cc 8ee-	.
.	12cJ	.	.
6a-]	6F-X	8ccL 8ee- 8aa-	.
.	.	8a-J 8ee-	.
12c	12c	.	.
=10	=10	=10	=10
[4d	12dL	8a-L 8dd 8gg	.
.	12A-	.	.
.	.	8gg 8bb- 8ddd	.
.	12BB-J	.	.
6d]	12A-L	8dd 8gg 8ccc	.
.	12d	.	.
.	.	8ddJ	.
12cc	12ccJ	.	.
=11	=11	=11	=11
[4b-	12b-L	8ddL 8gg	.
.	12f	.	.
.	.	8dd 8ff	.
.	12dJ	.	.
6b-]	6G-X	8dd 8ff 8bb-	.
.	.	8b-J 8ff	.
12d	12d	.	.
=12	=12	=12	=12
[4en	12eL	8b-L 8een 8aan	.
.	12B-	.	.
.	.	8aa 8ccc 8eeen	.
.	12CJ	.	.
6e]	12B-L	8ee 8aa 8ddd	.
.	12e	.	.
.	.	8aaJ 8ccc 8eee	.
12cc	12ccJ	.	.
=13	=13	=13	=13
6en	12eL	8aanL 8ccc 8ggg	.
.	12c	.	.
.	.	8aa 8ccc 8fff	.
[12f	12fJ	.	.
16fLL]	4AAn	8aa 8ccc 8eeen	.
16an	.	.	.
16bn	.	8eenJ 8aa	.
16ccJJ	.	.	.
*clefG2	*	*	*
=14	=14	=14	=14
[4een	12eeL	8r	.
.	12f#X	.	.
.	.	8cc 8ff#X 8bbn	.
.	12cJ	.	.
6ee]	12DL	8aanL 8ccc 8eeen	.
.	12c	.	.
.	.	8ccJ 8ff# 8gg#X	.
12ee	12f#J	.	.
=15	=15	=15	=15
[4een	12eeL	8ccL 8ff#X 8bbn	.
.	12cc	.	.
.	.	8cc 8ff# 8bb-X	.
.	12f#XJ	.	.
6ee]	12dL	8ff# 8bb- 8eeen	.
.	12f#	.	.
.	.	8ff#J 8aan	.
12ee	12ccJ	.	.
=16	=16	=16	=16
4een	12bnL	8ffnL 8aan	.
.	12fn	.	.
.	.	8ffJ 8gg	.
.	12GJ	.	.
4ee-X	12cc-XL	12ffL 12gg	.
.	12f	12ff 12bb-	.
.	12d-XJ	12ffJ 12aa-X	.
=17	=17	=17	=17
4ee-	12b-XL	8ff-XL 8aa-	.
.	12f-X	.	.
.	.	8ff-X 8ffnX	.
.	12G-XJ	.	.
6ccn	12f-L	8ff-X 8gg-X	.
.	12b-	.	.
.	.	8ff-J 8ggn	.
12dd-X	12dd-J	.	.
=18	=18	=18	=18
[4ffn	12ffL	8dd-X 8gg 8ccc	.
.	12gn	.	.
.	.	4dd- 4gg 4aan	.
.	12d-XJ	.	.
6ff]	12E-L	.	.
.	12d-	.	.
.	.	8dd- 8gg 8bb-	.
12g	12gJ	.	.
*clefF4	*	*	*
=19	=19	=19	=19
[4g	12gL	8ffL 8gg 8ddd-X	.
.	12d-X	.	.
.	.	8ff 8gg 8ccc	.
.	12E-J	.	.
6g]	12AA-L	8gg 8ccc 8fff	.
.	12E-	.	.
.	.	8ffJ 8gg 8ccc-X	.
12g	12d-J	.	.
=20	=20	=20	=20
[4g	4g	8dd-XL 8ff 8bb-	.
.	.	8dd- 8ff 8bb--	.
8gL]	4rEE	8ff 8bb-- 8ddd-X	.
8ccJ	.	8gJ 8dd- 8ff	.
=21	=21	=21	=21
[4b-X	12b-XL	8g-XL 8cc 8ff	.
.	12c	.	.
.	.	8g- 8cc 8ddn	.
.	12G-XJ	.	.
6b-]	12AA-L	8g- 8cc 8ee-	.
.	12G-	.	.
.	.	8g-J 8cc 8een	.
12c	12cJ	.	.
=22	=22	=22	=22
4c	12cL	8b-L 8cc 8ff	.
.	12G-X	.	.
.	.	8b- 8cc 8gg-X	.
.	12CJ	.	.
4rc	12EE--L	8b- 8cc 8ff	.
.	12C	.	.
.	.	8b-J 8cc 8gg-	.
.	12G-J	.	.
*v	*v	*	*
=23	=23	=23
12cL	8ccL 8gg-X 8bb-	.
12G-X	.	.
.	8cc 8dd	.
12AA-J	.	.
12G-L	8cc 8ee-X	.
12c	.	.
.	8ccJ 8een	.
12g-XJ	.	.
=24	=24	=24
4r	12ccL 12ff	.
.	12cc 12gg-X	.
.	12ccJ 12ggn	.
4E-- 4c 4g-X	6cc 6gg-X 6aa-	.
.	12cc 12gg- 12aan	.
*clefG2	*	*
=25	=25	=25
*^	*	*
4ff	12ccL	8gg-XL 8bb-	.
.	12g-X	.	.
.	.	8gg-X 8ggn	.
.	12A-J	.	.
6dd	12g-L	8gg-X 8aa-	.
.	12cc	.	.
.	.	8gg-J 8aan	.
12ee-	12ee-J	.	.
=26	=26	=26	=26
[4ggn	12ggnL	8ee- 8aan 8ddd	.
.	12an	.	.
.	.	4ee- 4aa 4bbn	.
.	12e-J	.	.
6gg]	12FL	.	.
.	12e-	.	.
.	.	8ee- 8aa 8ccc	.
12a	12aJ	.	.
*clefF4	*	*	*
=27	=27	=27	=27
2an	12aL	8ggL 8aan 8eee-	.
.	12e-	.	.
.	.	8gg 8aa 8ddd	.
.	12FJ	.	.
.	12BB-XL	8aa 8ddd 8ggg	.
.	12F	.	.
.	.	8ggJ 8aa 8ddd-X	.
.	12e-J	.	.
=28	=28	=28	=28
[4an	4a	8ee-L 8gg 8ccc	.
.	.	8ee- 8gg 8ccc-X	.
8aL]	4rEE	8gg 8ccc- 8eee-	.
8ddnJ	.	8anJ 8ee- 8gg	.
=29	=29	=29	=29
[4cc	12ccL	8a-XL 8dd 8gg	.
.	12d	.	.
.	.	8a- 8dd 8een	.
.	12A-XJ	.	.
6cc]	12BB-L	8a- 8dd 8ff	.
.	12A-	.	.
.	.	8a-J 8dd 8ff#X	.
12d	12dJ	.	.
=30	=30	=30	=30
2d	12dL	8ccL 8dd 8gg	.
.	12A-	.	.
.	.	8cc 8dd 8aa-	.
.	12DJ	.	.
.	12FF-XL	8cc 8dd 8gg	.
.	12D	.	.
.	.	8ccJ 8dd 8aa-	.
.	12A-J	.	.
=31	=31	=31	=31
[4d	12dL	8ddL 8aa- 8ccc	.
.	12A-	.	.
.	.	8dd 8aa- 8ccc-X	.
.	12BB-J	.	.
6d]	12A-L	8dd 8aa- 8ccc-	.
.	12d	.	.
.	.	8ddJ 8aa- 8bb-	.
12g	12gJ	.	.
*v	*v	*	*
=32	=32	=32
4.en	8ddL 8aa- 8bb-	.
.	8b- 8dd 8gg	.
.	8a- 8dd 8gg	.
8f	8a-J 8dd 8ff	.
=33	=33	=33
*^	*	*
[4a-	12a-L	8r	.
.	12e-X	.	.
.	.	8cc 8ee-	.
.	12cJ	.	.
6a-]	6F-X	8ccL 8ee- 8aa-	.
.	.	8a-J 8ee-	.
12c	12c	.	.
=34	=34	=34	=34
[4d	12dL	8a-L 8dd 8gg	.
.	12A-	.	.
.	.	8dd 8gg 8ccc	.
.	12BB-J	.	.
6d]	12A-L	8dd 8gg 8bbn	.
.	12d	.	.
.	.	8bnJ 8dd	.
12a-	12a-J	.	.
=35	=35	=35	=35
[4a-	12a-L	8ccL 8ff	.
.	12e-	.	.
.	.	8cc 8ee-	.
.	12cJ	.	.
6a-]	6F-X	8cc 8ee- 8aa-	.
.	.	8a-J 8ee-	.
12c	12c	.	.
=36	=36	=36	=36
[4d	12dL	8a-L 8dd 8gg	.
.	12A-	.	.
.	.	8dd 8gg 8ccc	.
.	12BB-J	.	.
6d]	12A-L	8dd 8gg 8bb-	.
.	12d	.	.
.	.	8ggJ 8bb- 8ddd	.
12b-	12b-J	.	.
=37	=37	=37	=37
6d	12dL	8aa-L 8fff	.
.	12A-	.	.
.	.	8gg 8ccc 8eee-	.
[12e-	12e-J	.	.
6e-]	6C	8ee- 8gg 8ccc	.
.	.	8a-J 8ee- 8gg	.
12e-	12e-	.	.
=38	=38	=38	=38
[4cc#X	12cc#L	8anL 8dd#X 8gg	.
.	12d#X	.	.
.	.	8a 8dd# 8gg#X	.
.	12AnJ	.	.
6cc#]	12BBnL	8dd# 8gg# 8ccc#X	.
.	12A	.	.
.	.	8aJ 8dd# 8ee#X	.
12cc#	12d#J	.	.
=39	=39	=39	=39
[4cc#X	12cc#L	8anL 8dd#X 8gg#X	.
.	12d#X	.	.
.	.	8a 8dd# 8ggn	.
.	12AnJ	.	.
6cc#]	12BBnL	8dd# 8gg 8ccc#X	.
.	12A	.	.
.	.	8aJ 8dd# 8ff#X	.
12d#	12d#J	.	.
=40	=40	=40	=40
4g#X	12g#L	8g#XL 8bn 8ff#X	.
.	12Bn	.	.
.	.	8g# 8b 8een	.
.	12G#XJ	.	.
4rc	8BBnL	8g# 8b 8ee	.
.	8EEnJ	8g#J 8b 8dd#X	.
*v	*v	*	*
=41	=41	=41
4BBn 4An 4d#X	8r	.
.	8an 8dd#X 8ff#X	.
4FFn 4E-X 4A 4e-X	8aL 8ee-X 8ggn	.
.	8ee-J 8gg 8dddn	.
=42	=42	=42
*^	*	*
[4an	12aL	8ee-L 8gg 8ccc	.
.	12e-	.	.
.	.	8ee- 8gg 8ccc-X	.
.	12AnJ	.	.
6a]	12BB-L	8gg 8ccc- 8eee-	.
.	12A	.	.
.	.	8cc-XJ 8ee- 8gg	.
12a	12e-J	.	.
=43	=43	=43	=43
[4ccn	12ccnL	8a-XL 8dd 8gg	.
.	12d	.	.
.	.	8a- 8dd 8ff#X	.
.	12A-XJ	.	.
6cc]	12BB-L	8dd 8ff# 8cccn	.
.	12A-	.	.
.	.	8a-J 8dd 8ff#	.
12d	12dJ	.	.
=44	=44	=44	=44
4g	12gL	12ee-L 12gg 12ccc-X	.
.	12e-	12ee- 12gg 12bb-	.
.	12GJ	12b-J 12ee- 12gg	.
4rc	12BB-L	12gL 12b- 12ee-	.
.	12EE-J	12g 12b- 12dd	.
.	12rEE	12gJ 12b- 12dd-X	.
=45	=45	=45	=45
[4f	12fL	8d-XL 8g 8ccn	.
.	12G	.	.
.	.	8d- 8g 8an	.
.	12D-XJ	.	.
6f]	12EE-L	8d- 8g 8b-	.
.	12D-	.	.
.	.	8d-J 8g 8bn	.
12G	12GJ	.	.
=46	=46	=46	=46
[4G	12GL	8fL 8g 8cc	.
.	12BB--	.	.
.	.	8f 8g 8dd-X	.
.	12EE-J	.	.
6G]	12BB--L	8f 8g 8cc	.
.	12G	.	.
.	.	8fJ 8g 8dd-	.
12d-X	12d-J	.	.
=47	=47	=47	=47
2c	12cL	8b-XL 8cc 8ff	.
.	12G-X	.	.
.	.	8b- 8cc 8ddn	.
.	12AA-J	.	.
.	12EE-L	8b- 8cc 8ee-	.
.	12AA-	.	.
.	.	8b-J 8cc 8een	.
.	12G-J	.	.
=48	=48	=48	=48
6c	12cL	8b-L 8cc 8ff	.
.	12G-X	.	.
.	.	8b- 8cc 8gg-X	.
12f	12fJ	.	.
6f-X	12f-L	8cc 8gg- 8bb-	.
.	12G-	.	.
.	.	8ccJ 8gg- 8bb--	.
12e-	12e-J	.	.
=49	=49	=49	=49
[4d	12dL	8ccL 8ffn 8aa-	.
.	12A-	.	.
.	.	8cc 8dd 8ggn	.
.	12BB-XJ	.	.
6d]	12EE-L	8dd 8gg 8ccc	.
.	12BB-	.	.
.	.	8ccJ 8dd 8gg-X	.
12d	12A-J	.	.
=50	=50	=50	=50
[4d	12dL	8a-L 8cc 8ff	.
.	12A-	.	.
.	.	8a- 8cc 8ff-X	.
.	12BB-J	.	.
6d]	12EE-L	8cc 8ff- 8aa-	.
.	12BB-	.	.
.	.	8f-XJ 8a- 8cc	.
12d	12A-J	.	.
=51	=51	=51	=51
*	*^	*	*
4e-	4rEE	12e-\L	8gL 8cc-X	.
.	.	12G\	.	.
.	.	.	8g 8b-	.
.	.	12E-\J	.	.
[4An	12rEE	12A\L	8e- 8g 8dd-X	.
.	[6G	12G\	.	.
.	.	.	8e-J 8g 8ccn	.
.	.	[12BB-\J	.	.
=52	=52	=52	=52	=52
8AL]	4G]	4BB-\]	8e-L 8g 8cc-X	.
8B-J	.	.	8e-J 8g 8b-	.
4rc	4rEE	4r	12gL 12b- 12ee-	.
.	.	.	12g 12b- 12ddn	.
.	.	.	12gJ 12b- 12dd-X	.
*	*v	*v	*	*
=53	=53	=53	=53
[4f	12fL	8d-XL 8g 8ccn	.
.	12G	.	.
.	.	8d- 8g 8an	.
.	12D-XJ	.	.
6f]	12EE-L	8d- 8g 8b-	.
.	12D-	.	.
.	.	8d-J 8g 8bn	.
12G	12GJ	.	.
=54	=54	=54	=54
[4G	12GL	8fL 8g 8cc	.
.	12BB--	.	.
.	.	8f 8g 8dd-X	.
.	12EE-J	.	.
6G]	12BB--L	8f 8g 8cc	.
.	12G	.	.
.	.	8fJ 8g 8dd-	.
12d-X	12d-J	.	.
=55	=55	=55	=55
2c	12cL	8b-XL 8cc 8ff	.
.	12G-X	.	.
.	.	8b- 8cc 8ddn	.
.	12AA-J	.	.
.	12EE-L	8b- 8cc 8ee-	.
.	12AA-	.	.
.	.	8b-J 8cc 8een	.
.	12G-J	.	.
=56	=56	=56	=56
6c	12cL	8b-L 8cc 8ff	.
.	12G-X	.	.
.	.	8b- 8cc 8gg-X	.
12f	12fJ	.	.
6f-X	12f-L	8cc 8gg- 8bb-	.
.	12G-	.	.
.	.	8ccJ 8gg- 8bb--	.
12e-	12e-J	.	.
=57	=57	=57	=57
[4d	12dL	8ccL 8ffn 8aa-	.
.	12A-	.	.
.	.	8cc 8dd 8ggn	.
.	12BB-J	.	.
6d]	12EE-L	8dd 8gg 8ccc	.
.	12BB-	.	.
.	.	8ccJ 8dd 8gg-X	.
12d	12A-J	.	.
=58	=58	=58	=58
[4d	12dL	8a-L 8cc 8ff	.
.	12A-	.	.
.	.	8a- 8cc 8ff-X	.
.	12BB-J	.	.
6d]	12EE-L	8cc 8ff- 8aa-	.
.	12BB-	.	.
.	.	8f-XJ 8a- 8cc	.
12d	12A-J	.	.
=59	=59	=59	=59
*	*^	*	*
4e-	4rEE	12e-\L	8gL 8cc-X	.
.	.	12G\	.	.
.	.	.	8g 8b-	.
.	.	12E-\J	.	.
[4An	12rEE	12A\L	8e- 8g 8dd-X	.
.	[6G	12G\	.	.
.	.	.	8e-J 8g 8ccn	.
.	.	[12BB-\J	.	.
=60	=60	=60	=60	=60
8AL]	4G]	4BB-\]	8e-L 8g 8cc-X	.
8B-J	.	.	8e- 8g 8b-	.
4rc	4rEE	4r	8g 8b- 8ee-	.
.	.	.	8b-J 8ee- 8gg	.
*	*v	*v	*	*
=61	=61	=61	=61
[4d	12dL	8ccL 8dd 8aa-X	.
.	12A-X	.	.
.	.	8cc 8dd 8gg	.
.	12BB-J	.	.
6d]	12EE-L	8dd 8gg 8cccn	.
.	12BB-	.	.
.	.	8ccJ 8dd 8gg-X	.
12d	12A-J	.	.
=62	=62	=62	=62
[4d	12dL	8a-L 8cc 8ff	.
.	12A-	.	.
.	.	8a- 8cc 8ff-X	.
.	12BB-J	.	.
6d]	12EE-L	8cc 8ff- 8aa-	.
.	12BB-	.	.
.	.	8f-XJ 8a- 8cc	.
12d	12A-J	.	.
=63	=63	=63	=63
*	*^	*	*
4e-	4rEE	12e-\L	8gL 8cc-X	.
.	.	12G\	.	.
.	.	.	8g 8b-	.
.	.	12E-\J	.	.
[4An	12rEE	12A\L	8e- 8g 8dd-X	.
.	[6G	12G\	.	.
.	.	.	8e-J 8g 8ccn	.
.	.	[12BB-\J	.	.
=64	=64	=64	=64	=64
8AL]	4G]	4BB-\]	8e-L 8g 8cc-X	.
8B-J	.	.	8e- 8g 8b-	.
4rc	4rEE	4r	8g 8b- 8ee-	.
.	.	.	8e-J 8g 8b-	.
=65	=65	=65	=65	=65
4e-	4rEE	12e-\L	8gL 8cc-X	.
.	.	12G\	.	.
.	.	.	8g 8b-	.
.	.	12E-\J	.	.
[4An	12rEE	12A\L	8e- 8g 8dd-X	.
.	[6G	12G\	.	.
.	.	.	8e-J 8g 8ccn	.
.	.	[12BB-\J	.	.
=66	=66	=66	=66	=66
8AL]	4G]	4BB-\]	8e-L 8g 8cc-X	.
8B-J	.	.	8e- 8g 8b-	.
[4An	[4BB- [4G	4r	8e- 8g 8dd-X	.
.	.	.	8e-J 8g 8ccn	.
*	*v	*v	*	*
=67	=67	=67	=67
8AL]	2BB-_ 2G_	8e-L 8g 8cc-X	.
8B-J	.	8e-J 8g 8b-	.
[4An	.	[4e- [4g [4dd-X	.
=68	=68	=68	=68
4.A]	2BB-] 2G]	8e-L] 8g] 8dd-]	.
.	.	8e- 8g 8ccn	.
.	.	8e- 8g 8cc-X	.
8B-	.	8e-J 8g 8b-	.
*v	*v	*	*
=69	=69	=69
2EE- 2BB- 2G	2e- 2b- 2gg	.
==	==	==
*-	*-	*-
!!!system-decoration: {(*)}
!!!ENC: Bryan Jacob Bell
!!!END: November 2021 to April 2022
!!!PED: Günter Philipp
!!!PTL: Ausgewählte Klavierwerke (Edition Peters)
